src/main/resources/icons/close.svg

<!-- Copyright 2000-2021 JetBrains s.r.o. Use of this source code is governed by the Apache 2.0 license that can be found in the LICENSE file. -->
<svg xmlns="http://www.w3.org/2000/svg" width="16" height="16" viewBox="0 0 16 16">
    <path fill="#7F8B91" fill-opacity=".5" fill-rule="evenodd" d="M7.99494337,8.70506958 L4.85408745,11.8540874 L4.14698067,11.1469807 L7.29493214,8.00505835 L4.14698067,4.85710688 L4.85408745,4.1500001 L8.00204181,7.29795446 L11.1439612,4.1500001 L11.851068,4.85710688 L8.70204624,7.99795888 L11.851068,11.1469807 L11.1439612,11.8540874 L7.99494337,8.70506958 Z"/>
</svg>

<svg xmlns="http://www.w3.org/2000/svg" width="16" height="16"><path fill="#7F8B91" fill-opacity=".5" fill-rule="evenodd" d="m7.995 8.705-3.14 3.15-.708-.708 3.148-3.142-3.148-3.148.707-.707 3.148 3.148 3.142-3.148.707.707-3.149 3.141 3.15 3.149-.708.707z"/></svg>
